app/assets/img/style/work_ico.svg

<?xml version="1.0" encoding="UTF-8"?>
<svg width="68px" height="81px" viewBox="0 0 68 81" version="1.1" xmlns="http://www.w3.org/2000/svg" xmlns:xlink="http://www.w3.org/1999/xlink">
    <!-- Generator: Sketch 57.1 (83088) - https://sketch.com -->
    <title>Fill 16</title>
    <desc>Created with Sketch.</desc>
    <g id="Page-1" stroke="none" stroke-width="1" fill="none" fill-rule="evenodd">
        <g id="9.7”-iPad" transform="translate(-162.000000, -1956.000000)" fill="#0A0B09">
            <g id="Group-35" transform="translate(31.000000, 1565.000000)">
                <g id="Group-18" transform="translate(91.000000, 357.038000)">
                    <path d="M55.9597,88.2291 L57.2507,87.0391 C58.7547,87.7681 59.7127,88.3241 61.4057,89.5301 C64.5927,85.9151 66.6947,84.0841 70.6047,81.6491 L71.0227,82.6131 C67.7997,85.4281 65.4357,88.5631 62.0327,94.6661 C59.9347,92.1941 58.5357,90.6191 55.9597,88.2291 L55.9597,88.2291 Z M55.6327,71.4921 L56.9237,70.3031 C58.4277,71.0321 59.3857,71.5861 61.0787,72.7951 C64.2657,69.1781 66.3677,67.3481 70.2777,64.9121 L70.6957,65.8781 C67.4727,68.6931 65.1097,71.8261 61.7067,77.9291 C59.6077,75.4581 58.2087,73.8841 55.6327,71.4921 L55.6327,71.4921 Z M77.3907,71.2341 L90.7797,71.2341 L90.7797,67.8871 L77.3907,67.8871 L77.3907,71.2341 Z M77.3907,77.9291 L90.7797,77.9291 L90.7797,74.5821 L77.3907,74.5821 L77.3907,77.9291 Z M100.8217,47.8031 L87.4317,47.8031 L80.7377,54.4981 L67.6917,54.4981 L60.6537,47.8031 L47.2647,47.8031 L47.2647,108.0551 L100.8217,108.0551 L100.8217,47.8031 Z M70.6957,44.4561 C70.6957,46.3041 72.1957,47.8031 74.0427,47.8031 C75.8927,47.8031 77.3907,46.3041 77.3907,44.4561 C77.3907,42.6071 75.8927,41.1091 74.0427,41.1091 C72.1957,41.1091 70.6957,42.6071 70.6957,44.4561 L70.6957,44.4561 Z M107.5157,41.1091 L107.5157,114.7491 L40.5697,114.7491 L40.5697,41.1091 L50.6117,41.1091 C54.7307,41.1091 57.9117,37.4801 60.6537,34.4141 L87.4317,34.4141 C90.1777,37.4801 93.3617,41.1091 97.4737,41.1091 L107.5157,41.1091 Z M77.3907,87.9711 L90.7797,87.9711 L90.7797,84.6241 L77.3907,84.6241 L77.3907,87.9711 Z M77.3907,94.6651 L90.7797,94.6651 L90.7797,91.3181 L77.3907,91.3181 L77.3907,94.6651 Z" id="Fill-16"></path>
                </g>
            </g>
        </g>
    </g>
</svg>

<svg height="81" viewBox="0 0 68 81" width="68" xmlns="http://www.w3.org/2000/svg"><path d="m55.9597 88.2291 1.291-1.19c1.504.729 2.462 1.285 4.155 2.491 3.187-3.615 5.289-5.446 9.199-7.881l.418.964c-3.223 2.815-5.587 5.95-8.99 12.053-2.098-2.472-3.497-4.047-6.073-6.437zm-.327-16.737 1.291-1.189c1.504.729 2.462 1.283 4.155 2.492 3.187-3.617 5.289-5.447 9.199-7.883l.418.966c-3.223 2.815-5.586 5.948-8.989 12.051-2.099-2.471-3.498-4.045-6.074-6.437zm21.758-.258h13.389v-3.347h-13.389zm0 6.695h13.389v-3.347h-13.389zm23.431-30.126h-13.39l-6.694 6.695h-13.046l-7.038-6.695h-13.389v60.252h53.557zm-30.126-3.347c0 1.848 1.5 3.347 3.347 3.347 1.85 0 3.348-1.499 3.348-3.347 0-1.849-1.498-3.347-3.348-3.347-1.847 0-3.347 1.498-3.347 3.347zm36.82-3.347v73.64h-66.946v-73.64h10.042c4.119 0 7.3-3.629 10.042-6.695h26.778c2.746 3.066 5.93 6.695 10.042 6.695zm-30.125 46.862h13.389v-3.347h-13.389zm0 6.694h13.389v-3.347h-13.389z" fill="#0a0b09" fill-rule="evenodd" transform="translate(-40 -33.962)"/></svg>
